X:1
T:Le Coeur Content
C:Keith Murphy 1997
M:C|
K:G
DEF|:"G"G2 G/G/G GABG| "D"AGFA "G"GABG| "C"c2 B/c/B "G/B" AGFG| "Am" ABcA "D"GFED|
"G" GDB,D GABG| "D" AGFA "G"GABG| "C" c2 dc "G/B" BGDB| "D"AGFA "G"GDEF:|
|:"G" GDAD BDAD| "D" AGFG AGFD|"G" GDAD BDAD | "D" AGFA "G"GDEF|
"G" GDAD BDAD| "D" AGFG AGFD|"C" c2 dc "G/B" BGDB|"Am"AGFA "D"GDEF:|
